resources/svg/list-layout.svg

<svg xmlns="http://www.w3.org/2000/svg" viewBox="0 0 15 15" fill="currentColor"><path d="M1.5 1C0.671573 1 0 1.67157 0 2.5V4.5C0 5.32843 0.671573 6 1.5 6H3.5C4.32843 6 5 5.32843 5 4.5V2.5C5 1.67157 4.32843 1 3.5 1H1.5Z" fill="black"/><path d="M7 4H15V3H7V4Z" fill="black"/><path d="M1.5 9C0.671573 9 0 9.67157 0 10.5V12.5C0 13.3284 0.671573 14 1.5 14H3.5C4.32843 14 5 13.3284 5 12.5V10.5C5 9.67157 4.32843 9 3.5 9H1.5Z" fill="black"/><path d="M7 12H15V11H7V12Z" fill="black"/></svg>

<svg xmlns="http://www.w3.org/2000/svg" viewBox="0 0 15 15" fill="currentColor"><path d="M1.5 1A1.5 1.5 0 000 2.5v2A1.5 1.5 0 001.5 6h2A1.5 1.5 0 005 4.5v-2A1.5 1.5 0 003.5 1h-2zM7 4h8V3H7v1zM1.5 9A1.5 1.5 0 000 10.5v2A1.5 1.5 0 001.5 14h2A1.5 1.5 0 005 12.5v-2A1.5 1.5 0 003.5 9h-2zM7 12h8v-1H7v1z" fill="currentColor"/></svg>
